packages/ffe-icons/icons/open/300/sm/fit_screen.svg

<svg xmlns="http://www.w3.org/2000/svg" height="20" viewBox="0 -960 960 960" width="20"><path d="M792-601.999v-81.692q0-4.616-3.846-8.463-3.847-3.846-8.463-3.846h-81.692q-11.069 0-18.534-7.405Q672-710.809 672-721.789q0-10.979 7.465-18.594 7.465-7.616 18.534-7.616h81.692q27.008 0 45.658 18.65 18.65 18.65 18.65 45.658v81.692q0 11.069-7.405 18.534Q829.189-576 818.21-576q-10.98 0-18.595-7.465Q792-590.93 792-601.999Zm-675.999 0v-81.692q0-27.008 18.65-45.658 18.65-18.65 45.658-18.65h81.692q11.069 0 18.534 7.405Q288-733.189 288-722.21q0 10.98-7.465 18.595Q273.07-696 262.001-696h-81.692q-4.616 0-8.463 3.846-3.846 3.847-3.846 8.463v81.692q0 11.069-7.405 18.534Q153.191-576 142.211-576q-10.979 0-18.594-7.465-7.616-7.465-7.616-18.534Zm663.69 389.998h-81.692q-11.069 0-18.534-7.405Q672-226.811 672-237.79q0-10.98 7.465-18.595Q686.93-264 697.999-264h81.692q4.616 0 8.463-3.846 3.846-3.847 3.846-8.463v-81.692q0-11.069 7.405-18.534Q806.809-384 817.789-384q10.979 0 18.594 7.465 7.616 7.465 7.616 18.534v81.692q0 27.008-18.65 45.658-18.65 18.65-45.658 18.65Zm-599.382 0q-27.008 0-45.658-18.65-18.65-18.65-18.65-45.658v-81.692q0-11.069 7.405-18.534Q130.811-384 141.79-384q10.98 0 18.595 7.465Q168-369.07 168-358.001v81.692q0 4.616 3.846 8.463 3.847 3.846 8.463 3.846h81.692q11.069 0 18.534 7.405Q288-249.191 288-238.211q0 10.979-7.465 18.594-7.465 7.616-18.534 7.616h-81.692Zm76.615-205.318v-125.713q0-26.659 18.842-45.352 18.843-18.692 45.465-18.692h317.538q26.622 0 45.465 18.868 18.842 18.868 18.842 45.527v125.713q0 26.659-18.842 45.352-18.843 18.692-45.465 18.692H321.231q-26.622 0-45.465-18.868-18.842-18.868-18.842-45.527Zm64.307 12.396h317.538q5.385 0 8.846-3.462 3.462-3.461 3.462-8.846v-125.538q0-5.385-3.462-8.846-3.461-3.462-8.846-3.462H321.231q-5.385 0-8.846 3.462-3.462 3.461-3.462 8.846v125.538q0 5.385 3.462 8.846 3.461 3.462 8.846 3.462Zm-12.308 0v-150.154 150.154Z"/></svg>

<svg xmlns="http://www.w3.org/2000/svg" height="20" viewBox="0 -960 960 960" width="20"><path d="M792-602v-81.69q0-4.62-3.85-8.46-3.84-3.85-8.46-3.85H698q-11.07 0-18.53-7.4-7.47-7.41-7.47-18.39t7.47-18.59Q686.93-748 698-748h81.69q27.01 0 45.66 18.65Q844-710.7 844-683.69V-602q0 11.07-7.41 18.53-7.4 7.47-18.38 7.47-10.98 0-18.59-7.47Q792-590.93 792-602Zm-676 0v-81.69q0-27.01 18.65-45.66Q153.3-748 180.31-748H262q11.07 0 18.53 7.41 7.47 7.4 7.47 18.38 0 10.98-7.47 18.59Q273.07-696 262-696h-81.69q-4.62 0-8.46 3.85-3.85 3.84-3.85 8.46V-602q0 11.07-7.4 18.53-7.41 7.47-18.39 7.47t-18.59-7.47Q116-590.93 116-602Zm663.69 390H698q-11.07 0-18.53-7.41-7.47-7.4-7.47-18.38 0-10.98 7.47-18.59Q686.93-264 698-264h81.69q4.62 0 8.46-3.85 3.85-3.84 3.85-8.46V-358q0-11.07 7.4-18.53 7.41-7.47 18.39-7.47t18.59 7.47Q844-369.07 844-358v81.69q0 27.01-18.65 45.66Q806.7-212 779.69-212Zm-599.38 0q-27.01 0-45.66-18.65Q116-249.3 116-276.31V-358q0-11.07 7.41-18.53 7.4-7.47 18.38-7.47 10.98 0 18.59 7.47Q168-369.07 168-358v81.69q0 4.62 3.85 8.46 3.84 3.85 8.46 3.85H262q11.07 0 18.53 7.4 7.47 7.41 7.47 18.39t-7.47 18.59Q273.07-212 262-212h-81.69Zm76.61-205.32v-125.71q0-26.66 18.85-45.35 18.84-18.7 45.46-18.7h317.54q26.62 0 45.46 18.87 18.85 18.87 18.85 45.53v125.71q0 26.66-18.85 45.35-18.84 18.7-45.46 18.7H321.23q-26.62 0-45.46-18.87-18.85-18.87-18.85-45.53Zm64.31 12.4h317.54q5.38 0 8.85-3.46 3.46-3.47 3.46-8.85v-125.54q0-5.38-3.46-8.85-3.47-3.46-8.85-3.46H321.23q-5.38 0-8.85 3.46-3.46 3.47-3.46 8.85v125.54q0 5.38 3.46 8.85 3.47 3.46 8.85 3.46Zm-12.31 0v-150.16 150.16Z"/></svg>
